X:38
T: DORT AUF GEN LEIDLE
N: E1034
O: Europa, Mitteleuropa, Deutschland, Franken, Hildburghausen
R: Tanz - Lied
M: 3/8
L: 1/16
K: G
 | G2B2d2 | c2B2A2 |
G2B2d2 | dA3z2 |
G2B2d2 | c2B2A2 |
G2B2d2 | dA3z2 |
A3Bc2 | B3AG2 |
A3Bc2 | B3AG2 |
B4z2 | c4z2 |
d2B2A2 | G4z2

@@@ Tune index: 4722
